X:511
T:My Grandfather's Clock
C:Henry Clay Work
S:Colin Hume's website,  colinhume.com  - chords can also be printed below the stave.
Q:1/2=120
M:2/2
L:1/4
K:G
"D7"D2 | "G"G2 FG | "D7"A2 GA | "G"B2 cB | "Am"E2 AA | "G/D"G2 GG | "D7"F2 EF | "G"G4- | Gz DD |
"G"G2 FG | "D7"A2 GA | "G"B2 cB | "Am"E2 AA | "G/D"G2 GG | "D7"FE F2 | "G"G4- | Gz Bc |
"G"d2 BA | "Em"G2 FG | "Am"AG FE | "D"D2 Bc | "G"d2 BA | "A7"G2 FG | "D"A4- | "D7"Az DD |
"G"Gz "-"z2 | "D"Az "-"z2 | "G7"B/B/B cB | "Am"E2 AA | "G/D"G4 | "D7"F4 | "G"G4- | "/"Gz DD |
"G"G2 DD | ED D2 | "/"B,z Dz | B,z DD | "G"G2 DD | ED D2 | B,z Dz | B,z DD |
"G"Gz "-"z2 | "D"Az "-"z2 | "G7"B/B/B cB | "Am"E2 AA | "G/D"G4 | "D7"F4 | "G"G4- | G2 |]
